X: 182123
T: Red Bee (The)
C: Joe Liddy
Z: BB
S: "The Leitrim Fiddler" (Dublin 1981)
L: 1/8
M: 4/4
R: reel
Q: 1/4 = 180
K: Bm
de | f2 BA BAFA | d2 cA BF (3GFE | FB (3cBA Bcde | fded cAde |
fB (3BBB cBAF | EFAB cBce | fafe cBAF | EFAc B2 :|
cA | B2 cB fBcB | afge fecA | B2 cB fBcB | AFEF ABcA |
B2 cB fBcB | afge fece | fafe cBAF | EFAc B2 :|
Bc | d2 fd adbf | afef edBc | defd edfe | dBAF E2 FA |
d2 fd adbf | afef edBA | fB (3cBA FEFA | BdcA B4 ||
%%%%%%%%%%%%%%%%%
